!!! OTL: Berkowitz64
!!! Chapter: 1
!!! Section: I
!!! Page: 18
!!! Mode: 
!!! Encoder: DJB
**kern
*staff1
*I"Piano
=1-
*clefG2
*k[f#c#g#]
*f#:
*M4/4
4f#/
4a/
2cc#\
=2
4a/
4f#/
2cc#\
=3
4a/
4f#/
4c#/
4f#/
=4
2a/
2g#/
=5
4a/
4f#/
2cc#\
=6
4cc#\
4a/
2f#/
=7
4g#/
4f#/
4c#/
4a/
=8
2g#/
2f#/
==
*-
